icons/chevron-double-down.svg

<svg width="24" height="24" viewBox="0 0 24 24" fill="none" xmlns="http://www.w3.org/2000/svg">
<path fill-rule="evenodd" clip-rule="evenodd" d="M7.81965 6.75715C8.11254 6.46425 8.58741 6.46425 8.88031 6.75715L12 9.87682L15.1196 6.75715C15.4125 6.46425 15.8874 6.46425 16.1803 6.75715C16.4732 7.05004 16.4732 7.52491 16.1803 7.81781L12.9803 11.0178C12.7155 11.2826 12.3577 11.4625 11.9625 11.4625C11.5794 11.4625 11.2195 11.2902 10.978 10.9761L7.81965 7.81781C7.52675 7.52491 7.52675 7.05004 7.81965 6.75715ZM11.8992 9.9743C11.8992 9.97426 11.8997 9.97392 11.9008 9.97338L11.8992 9.9743Z" fill="black"/>
<path fill-rule="evenodd" clip-rule="evenodd" d="M7.81965 12.7571C8.11254 12.4643 8.58741 12.4643 8.88031 12.7571L12 15.8768L15.1196 12.7571C15.4125 12.4643 15.8874 12.4643 16.1803 12.7571C16.4732 13.05 16.4732 13.5249 16.1803 13.8178L12.9803 17.0178C12.7155 17.2826 12.3577 17.4625 11.9625 17.4625C11.5794 17.4625 11.2195 17.2902 10.978 16.9761L7.81965 13.8178C7.52675 13.5249 7.52675 13.05 7.81965 12.7571ZM11.8992 15.9743C11.8992 15.9743 11.8997 15.9739 11.9008 15.9734L11.8992 15.9743Z" fill="black"/>
</svg>

<svg xmlns="http://www.w3.org/2000/svg" fill="none" viewBox="0 0 24 24">
  <path fill="#000" fill-rule="evenodd" d="M7.82 6.757a.75.75 0 0 1 1.06 0L12 9.877l3.12-3.12a.75.75 0 0 1 1.06 1.06l-3.2 3.2a1.45 1.45 0 0 1-1.018.446c-.383 0-.742-.173-.984-.487L7.82 7.818a.75.75 0 0 1 0-1.06Zm4.08 3.217Zm-4.08 2.783a.75.75 0 0 1 1.06 0l3.12 3.12 3.12-3.12a.75.75 0 0 1 1.06 1.06l-3.2 3.2a1.45 1.45 0 0 1-1.018.445c-.383 0-.742-.172-.984-.486L7.82 13.818a.75.75 0 0 1 0-1.06Zm4.08 3.217Z" clip-rule="evenodd"/>
</svg>
